X: 7
T: Level7
R: Jig
M: 6/8
L: 1/8
K: Dm
|: "Dm" [Dd]e[Af] "G" [b3g3] | "Dm" [d3a3] [d3a3] | [Dd]e[Af] "G" [c3g3] | "Am" [A3C3a3e3] [A3C3a3e3] :|
|: "Dm" [Ag]fe [A2f2]g | [A2a2]f "Am" [A3C3a3e3] | "Dm" [Ag]fe [A2f2]g | "Am" [A3C3a3e3] [A3C3a3e3]:|
